sites/Tartarya/images/main/money-icon.svg

<svg width="30" height="18" viewBox="0 0 30 18" fill="none" xmlns="http://www.w3.org/2000/svg">
<path d="M27.2425 12.8597C27.3363 12.7864 27.4688 12.8507 27.485 12.9664C27.4925 13.0397 27.5 13.113 27.5 13.1863C27.5 15.2254 23.3363 18 15 18C6.66375 18 2.5 15.2254 2.5 13.1953C2.5 13.122 2.5075 13.0474 2.51625 12.9819C2.51908 12.9545 2.52897 12.9285 2.54488 12.9064C2.56079 12.8843 2.58215 12.867 2.60675 12.8562C2.63135 12.8455 2.6583 12.8417 2.6848 12.8452C2.7113 12.8488 2.7364 12.8595 2.7575 12.8764C4.8275 14.4064 8.90625 15.7166 15 15.7166C21.1013 15.7166 25.18 14.4064 27.2425 12.8597ZM15 11.7874C8.2425 11.7874 3.765 10.2073 1.5775 8.38157C1.55985 8.36648 1.53912 8.35567 1.51684 8.34997C1.49457 8.34426 1.47133 8.34381 1.44886 8.34863C1.42639 8.35345 1.40527 8.36342 1.38707 8.37781C1.36887 8.39219 1.35406 8.41062 1.34375 8.43171C1.2302 8.65367 1.1714 8.90091 1.1725 9.15171C1.1725 11.4017 5.78125 14.4064 15 14.4064C24.2188 14.4064 28.8287 11.4107 28.8287 9.15171C28.8287 8.89714 28.7737 8.66057 28.6562 8.43171C28.646 8.41041 28.6311 8.39179 28.6128 8.37726C28.5945 8.36272 28.5732 8.35266 28.5506 8.34783C28.528 8.343 28.5046 8.34353 28.4822 8.34937C28.4597 8.35522 28.4389 8.36623 28.4212 8.38157C26.2337 10.2073 21.7588 11.7874 15 11.7874V11.7874ZM30 4.42029C30 7.01486 25 10.4773 15 10.4773C5 10.4773 0 7.01486 0 4.42029C0 1.82571 5 0 15 0C25 0 30 1.82571 30 4.42029V4.42029ZM25.625 4.01143C25.625 2.709 22.0863 1.96457 15 1.96457C7.91375 1.96457 4.375 2.71029 4.375 4.01143C4.375 5.31257 7.91375 7.20386 15 7.20386C22.0863 7.20386 25.625 5.31257 25.625 4.01143Z" fill="#688494"/>
</svg>

<svg width="30" height="18" fill="none" xmlns="http://www.w3.org/2000/svg"><path d="M27.242 12.86c.094-.074.227-.01.243.106.008.074.015.147.015.22C27.5 15.226 23.336 18 15 18S2.5 15.225 2.5 13.195c0-.073.007-.148.016-.213a.157.157 0 0 1 .09-.126.147.147 0 0 1 .151.02c2.07 1.53 6.15 2.84 12.243 2.84 6.101 0 10.18-1.31 12.242-2.856ZM15 11.787c-6.758 0-11.235-1.58-13.422-3.405a.15.15 0 0 0-.13-.033.15.15 0 0 0-.104.083c-.114.222-.173.469-.171.72 0 2.25 4.608 5.254 13.827 5.254 9.219 0 13.829-2.995 13.829-5.254 0-.255-.055-.491-.173-.72a.155.155 0 0 0-.105-.084.148.148 0 0 0-.13.034C26.234 10.207 21.76 11.787 15 11.787ZM30 4.42c0 2.595-5 6.057-15 6.057S0 7.015 0 4.42C0 1.826 5 0 15 0s15 1.826 15 4.42Zm-4.375-.409c0-1.302-3.539-2.046-10.625-2.046S4.375 2.71 4.375 4.01c0 1.302 3.539 3.193 10.625 3.193S25.625 5.313 25.625 4.01Z" fill="#688494"/></svg>
